X: 22
T:The High Level
% Nottingham Music Database
S:Various keys, usually in B-
M:4/4
L:1/8
R:Hornpipe
K:G
BA|"G"GBDG B,DGB|"G"dgBd GBAG|"D7"AcFA DFAc|"D7"ed^cd ed=cA|
"G"GBDG B,DGB|"G"dgBd GBAG|"C"EFGA Bc^cd|"D7"edcA "G"G2:|:
K:D
AG|"D"FdAd FdAd|"D"FDFA dAFA|"G"BdGd BdGd|"G"BGBd gdBd|
"A7"ceAe ceAe|"A7"cAce gece|"D"dcdf "A7"egce|"D"dcde d2:|


